X: 15967
T: Granton Backstep, The
R: barndance
M: 4/4
K: Dmajor
"D"vFAAB ABde|effa f/e/d dA|"A"ceef ed{A}BA|"A7"ABcc dBAD|
"D"FAAB ABde|effa f/e/d dA|"A"ceef edcd|1 "D"ef/e/d2d3A:|2 "D"ef/e/d2d3c||
|:"Bm"dBBd B2dB|"D"{d}BAFG {FG}A3c|"Bm"dBBd BcdA|"A"ceef edce|
"Bm"dBBd {A}B2dB|"D"{d}BAFG {FG}A3A|"A"ceef edcd|1 "D"ef/e/d2d3c:|2 "D"ef/e/d2d4||

